X: 32880
T: Portpatrick
R: jig
M: 6/8
K: Gmajor
dBG GAB|c/d/cB A2 e|dBG GAB|A2 B c/d/ce|
dBG GAB|c/d/cB A2 D|BdB AcA|BGF G2:|
ece dBd|ece ~d3|efg dBG|A2 B c/d/ce|
def gfe|dcB A2 D|BdB AcA|BGF G2:|

